X:8007
T:Jim Magill's Theme
C:Jim Magill
R:reel
M:4/4
L:1/8
K:D
f4 f3f|a2d2 d3d|e2d2 d2B2|A6AA|
A2d2 c2d2|e6f2|e2d2 e2f2|e4 a2A2|
f4 f3f|a2d2 d3d|e2d2 d2B2|A6de|
f2a2 f2d2|f2a2 f2d2|e2g2 ABc2|d4 d2z2:|
|:f2a2 a3a|f2a2 a3a|g2b2 b3g|b6b2|
f2a2 a3a|f2a2 a3a|b3a b3a|b4 a2g2|
f4 f3f|a2d2 d3d|e2d2 d2B2|A6de|
f2a2 f2d2|f2a2 f2d2|e2g2 ABc2|d4 d2z2:|
